dist/buttons/reload.svg

<svg width="32" height="32" viewBox="0 0 32 32" fill="none" xmlns="http://www.w3.org/2000/svg">
<path d="M10.0593 15.1406C10.4749 12.2344 12.9781 10 15.9999 10C17.6562 10 19.1562 10.6719 20.2437 11.7562C20.2499 11.7625 20.2562 11.7688 20.2624 11.775L20.4999 12H19.0031C18.4499 12 18.0031 12.4469 18.0031 13C18.0031 13.5531 18.4499 14 19.0031 14H23.0031C23.5562 14 24.0031 13.5531 24.0031 13V9C24.0031 8.44687 23.5562 8 23.0031 8C22.4499 8 22.0031 8.44687 22.0031 9V10.6688L21.6499 10.3344C20.2031 8.89375 18.2031 8 15.9999 8C11.9687 8 8.63432 10.9813 8.08119 14.8594C8.00307 15.4062 8.3812 15.9125 8.92807 15.9906C9.47495 16.0687 9.98119 15.6875 10.0593 15.1438V15.1406ZM23.9187 17.1406C23.9968 16.5938 23.6156 16.0875 23.0718 16.0094C22.5281 15.9312 22.0187 16.3125 21.9406 16.8562C21.5249 19.7625 19.0218 21.9969 15.9999 21.9969C14.3437 21.9969 12.8437 21.325 11.7562 20.2406C11.7499 20.2344 11.7437 20.2281 11.7374 20.2219L11.4999 19.9969H12.9968C13.5499 19.9969 13.9968 19.55 13.9968 18.9969C13.9968 18.4437 13.5499 17.9969 12.9968 17.9969L8.99994 18C8.73432 18 8.47807 18.1063 8.29057 18.2969C8.10307 18.4875 7.99682 18.7406 7.99994 19.0094L8.03119 22.9781C8.03432 23.5312 8.48744 23.975 9.04057 23.9688C9.59369 23.9625 10.0374 23.5125 10.0312 22.9594L10.0187 21.35L10.3531 21.6656C11.7999 23.1062 13.7968 24 15.9999 24C20.0312 24 23.3656 21.0187 23.9187 17.1406Z" fill="white"/>
</svg>

<svg xmlns="http://www.w3.org/2000/svg" width="32" height="32" fill="none"><path fill="#fff" d="M10.06 15.14a6.002 6.002 0 0 1 10.202-3.365L20.5 12h-1.497a.999.999 0 1 0 0 2h4a1 1 0 0 0 1-1V9a.999.999 0 1 0-2 0v1.669l-.353-.335A8 8 0 0 0 8.08 14.86a.998.998 0 1 0 1.978.285zm13.859 2a1 1 0 0 0-.847-1.13 1 1 0 0 0-1.131.846 6.003 6.003 0 0 1-10.185 3.385l-.019-.02-.237-.224h1.497a.999.999 0 1 0 0-2L9 18a1 1 0 0 0-.71.297 1 1 0 0 0-.29.712l.031 3.97a.997.997 0 0 0 1.01.99 1 1 0 0 0 .99-1.01l-.012-1.609.334.316A8 8 0 0 0 23.92 17.14"/></svg>
